src/assets/icons/filters/categories/motorbike_selected.svg

<svg width="48" height="33" viewBox="0 0 48 33" fill="none" xmlns="http://www.w3.org/2000/svg">
<path fill-rule="evenodd" clip-rule="evenodd" d="M36.4031 19.348L34.9203 17.8652C36.7776 16.0796 39.2554 14.8712 42.0688 14.8712C42.4433 14.8732 42.8032 14.7264 43.0694 14.463C43.3356 14.1996 43.4862 13.8412 43.4882 13.4668C43.4902 13.0923 43.3433 12.7324 43.0799 12.4662C42.8165 12.2 42.4582 12.0493 42.0837 12.0474L27.6883 11.9056C26.674 10.2856 25.2106 9.11608 23.4995 8.57308C22.0257 8.10616 20.4176 8.12108 18.8453 8.59247L18.1964 6.64574L20.1132 5.68655C20.2791 5.60358 20.4269 5.48877 20.5484 5.34866C20.6699 5.20855 20.7625 5.0459 20.8211 4.86997C20.8797 4.69405 20.9031 4.50831 20.8899 4.32335C20.8767 4.1384 20.8272 3.95785 20.7443 3.79203C20.6613 3.6262 20.5465 3.47833 20.4064 3.35688C20.2663 3.23542 20.1036 3.14275 19.9277 3.08415C19.7518 3.02556 19.566 3.00219 19.3811 3.01538C19.1961 3.02857 19.0156 3.07805 18.8497 3.16102L18.3187 3.42804L18.6155 1.64391C18.6497 1.44167 18.6391 1.2344 18.5845 1.03671C18.5298 0.839014 18.4325 0.655717 18.2993 0.499737C18.1673 0.342995 18.0027 0.217035 17.8169 0.130703C17.6311 0.0443715 17.4286 -0.000240077 17.2237 9.71649e-07C11.0479 9.71649e-07 6.02219 5.02421 6.02219 11.2015V13.4586C6.02219 14.2387 6.6532 14.8712 7.43488 14.8712C9.11608 14.8712 10.6705 15.3098 12.0533 16.0348L10.308 18.6513C9.39867 18.2679 8.42173 18.0706 7.43488 18.071C5.46363 18.073 3.57369 18.857 2.17981 20.2508C0.785924 21.6447 0.0019746 23.5347 0 25.5059C0.00236867 27.477 0.786444 29.3668 2.18024 30.7606C3.57404 32.1544 5.46375 32.9384 7.43488 32.9408C9.406 32.9384 11.2957 32.1544 12.6895 30.7606C14.0833 29.3668 14.8674 27.477 14.8698 25.5059C14.8698 23.4398 14.0195 21.5692 12.653 20.2207L14.3685 17.6534C16.6598 19.7433 18.0681 22.7163 18.0681 25.5059C18.0681 26.2861 18.7021 26.9171 19.4807 26.9171H30.0229C30.3972 26.9171 30.7562 26.7684 31.0208 26.5038C31.2855 26.2391 31.4341 25.8802 31.4341 25.5059C31.4341 23.6681 32.0502 21.7512 33.1213 20.0595L34.4057 21.3454C33.5718 22.5725 33.1268 24.0223 33.1288 25.5059C33.1311 27.4773 33.9154 29.3672 35.3095 30.7611C36.7036 32.1549 38.5937 32.9388 40.5651 32.9408C42.5362 32.9384 44.426 32.1544 45.8198 30.7606C47.2136 29.3668 47.9976 27.477 48 25.5059C47.9976 23.5348 47.2136 21.6451 45.8198 20.2513C44.426 18.8575 42.5362 18.0734 40.5651 18.071C39.081 18.069 37.6307 18.514 36.4031 19.348Z" fill="#13C1AC" fill-opacity="0.7"/>
<path fill-rule="evenodd" clip-rule="evenodd" d="M40.5651 30.1184C39.3423 30.1168 38.17 29.6304 37.3053 28.7657C36.4407 27.901 35.9542 26.7287 35.9526 25.5059C35.9526 24.7496 36.154 24.0455 36.4777 23.416L39.5656 26.5039C39.6966 26.6355 39.8524 26.7398 40.0239 26.8107C40.1955 26.8817 40.3795 26.9178 40.5651 26.9171C40.8447 26.9182 41.1183 26.8361 41.3511 26.6812C41.5839 26.5264 41.7654 26.3059 41.8726 26.0476C41.9797 25.7894 42.0076 25.5051 41.9528 25.2309C41.8979 24.9568 41.7628 24.7051 41.5646 24.5079L38.4752 21.42C39.1189 21.0793 39.8353 20.8991 40.5636 20.8949C41.7859 20.8965 42.9578 21.3826 43.8224 22.2466C44.6869 23.1106 45.1738 24.2821 45.1761 25.5044C45.1749 26.7273 44.6888 27.8997 43.8245 28.7646C42.9601 29.6296 41.7879 30.1164 40.5651 30.1184V30.1184ZM28.6923 24.0932H20.8129C20.1118 17.9965 14.9443 12.8305 8.84607 12.1294V11.2015C8.84855 9.27452 9.51422 7.40706 10.7312 5.91296C11.9482 4.41886 13.6424 3.38918 15.5291 2.99692L15.0771 5.69699C15.0741 5.72384 15.0786 5.74771 15.0771 5.77307C15.0711 5.81484 15.0741 5.85512 15.0726 5.89838C15.0695 6.03637 15.0866 6.17408 15.1233 6.30712C15.1278 6.32949 15.1233 6.35187 15.1308 6.37723L16.6375 10.8942C16.6509 10.9315 16.6763 10.9614 16.6912 10.9972C16.7031 11.0255 16.7001 11.0524 16.7121 11.0792C16.727 11.1105 16.7568 11.1299 16.7747 11.1583C16.8374 11.2642 16.909 11.3567 16.997 11.4402C17.0328 11.476 17.0641 11.5148 17.1059 11.5491C17.2252 11.6416 17.358 11.7177 17.4982 11.7684C17.5116 11.7744 17.5236 11.7833 17.5355 11.7878C17.6775 11.8349 17.826 11.8591 17.9756 11.8594C17.9935 11.8594 18.0099 11.8519 18.0263 11.8519C18.077 11.8519 18.1247 11.8355 18.1755 11.8266C18.2575 11.8161 18.3396 11.8147 18.4216 11.7878C18.4559 11.7759 18.4768 11.7505 18.5081 11.7371C18.5409 11.7251 18.5767 11.7266 18.6066 11.7102C19.9909 11.0195 21.3857 10.8644 22.6447 11.2642C23.8993 11.6625 24.9226 12.5874 25.5969 13.9404C25.8341 14.4148 26.3174 14.7161 26.8455 14.7206L34.1387 14.7922C31.1999 17.0179 29.1204 20.3818 28.6938 24.0932H28.6923ZM12.0459 25.5059C12.0443 26.7285 11.558 27.9005 10.6937 28.7652C9.82934 29.6298 8.65744 30.1164 7.43488 30.1184C6.21219 30.1168 5.04006 29.6303 4.17563 28.7656C3.3112 27.9009 2.82506 26.7286 2.82388 25.5059C2.82546 24.2837 3.31156 23.1121 4.17563 22.2477C5.03969 21.3834 6.21122 20.8969 7.43338 20.8949C7.87047 20.8949 8.28368 20.974 8.68347 21.0889L6.25938 24.7228C6.05167 25.0343 5.97623 25.4156 6.04967 25.7828C6.12311 26.15 6.3394 26.473 6.65096 26.6807C6.96253 26.8884 7.34384 26.9638 7.71102 26.8904C8.0782 26.8169 8.40117 26.6006 8.60888 26.2891L11.0315 22.6567C11.658 23.4428 12.0459 24.4259 12.0459 25.5059V25.5059ZM40.5651 18.071C39.081 18.069 37.6307 18.514 36.4031 19.348L34.9203 17.8652C36.7776 16.0796 39.2554 14.8712 42.0688 14.8712C42.4433 14.8732 42.8032 14.7264 43.0694 14.463C43.3356 14.1996 43.4862 13.8412 43.4882 13.4668C43.4902 13.0923 43.3433 12.7324 43.0799 12.4662C42.8165 12.2 42.4582 12.0493 42.0837 12.0474L27.6883 11.9056C26.674 10.2856 25.2106 9.11608 23.4995 8.57308C22.0257 8.10616 20.4176 8.12108 18.8453 8.59247L18.1964 6.64574L20.1132 5.68655C20.2791 5.60358 20.4269 5.48877 20.5484 5.34866C20.6699 5.20855 20.7625 5.0459 20.8211 4.86997C20.8797 4.69405 20.9031 4.50831 20.8899 4.32335C20.8767 4.1384 20.8272 3.95785 20.7443 3.79203C20.6613 3.6262 20.5465 3.47833 20.4064 3.35688C20.2663 3.23542 20.1036 3.14275 19.9277 3.08415C19.7518 3.02556 19.566 3.00219 19.3811 3.01538C19.1961 3.02857 19.0156 3.07805 18.8497 3.16102L18.3187 3.42804L18.6155 1.64391C18.6497 1.44167 18.6391 1.2344 18.5845 1.03671C18.5298 0.839014 18.4325 0.655717 18.2993 0.499737C18.1673 0.342995 18.0027 0.217035 17.8169 0.130703C17.6311 0.0443715 17.4286 -0.000240077 17.2237 9.71649e-07C11.0479 9.71649e-07 6.02219 5.02421 6.02219 11.2015V13.4586C6.02219 14.2387 6.6532 14.8712 7.43488 14.8712C9.11608 14.8712 10.6705 15.3098 12.0533 16.0348L10.308 18.6513C9.39867 18.2679 8.42173 18.0706 7.43488 18.071C5.46363 18.073 3.57369 18.857 2.17981 20.2508C0.785924 21.6447 0.0019746 23.5347 0 25.5059C0.00236867 27.477 0.786444 29.3668 2.18024 30.7606C3.57404 32.1544 5.46375 32.9384 7.43488 32.9408C9.406 32.9384 11.2957 32.1544 12.6895 30.7606C14.0833 29.3668 14.8674 27.477 14.8698 25.5059C14.8698 23.4398 14.0195 21.5692 12.653 20.2207L14.3685 17.6534C16.6598 19.7433 18.0681 22.7163 18.0681 25.5059C18.0681 26.2861 18.7021 26.9171 19.4807 26.9171H30.0229C30.3972 26.9171 30.7562 26.7684 31.0208 26.5038C31.2855 26.2391 31.4341 25.8802 31.4341 25.5059C31.4341 23.6681 32.0502 21.7512 33.1213 20.0595L34.4057 21.3454C33.5718 22.5725 33.1268 24.0223 33.1288 25.5059C33.1311 27.4773 33.9154 29.3672 35.3095 30.7611C36.7036 32.1549 38.5937 32.9388 40.5651 32.9408C42.5362 32.9384 44.426 32.1544 45.8198 30.7606C47.2136 29.3668 47.9976 27.477 48 25.5059C47.9976 23.5348 47.2136 21.6451 45.8198 20.2513C44.426 18.8575 42.5362 18.0734 40.5651 18.071" fill="#0F9989"/>
<path opacity="0.5" fill-rule="evenodd" clip-rule="evenodd" d="M28.6937 24.0932H20.8128C20.1116 17.9965 14.9442 12.8305 8.84595 12.1294V11.2015C8.84843 9.27452 9.51409 7.40706 10.7311 5.91296C11.9481 4.41887 13.6423 3.38918 15.529 2.99693L15.077 5.69699C15.074 5.72384 15.0785 5.74771 15.077 5.77307C15.071 5.81484 15.074 5.85512 15.0725 5.89838C15.0694 6.03637 15.0864 6.17408 15.1232 6.30712C15.1277 6.32949 15.1232 6.35187 15.1307 6.37723L16.6374 10.8942C16.6508 10.9315 16.6761 10.9614 16.6911 10.9972C16.703 11.0255 16.7 11.0524 16.7119 11.0792C16.7269 11.1105 16.7567 11.1299 16.7746 11.1583C16.8372 11.2642 16.9088 11.3567 16.9969 11.4402C17.0327 11.476 17.064 11.5148 17.1058 11.5491C17.2251 11.6416 17.3579 11.7177 17.4981 11.7684C17.5115 11.7744 17.5235 11.7833 17.5354 11.7878C17.6773 11.8349 17.8259 11.8591 17.9755 11.8594C17.9934 11.8594 18.0098 11.8519 18.0262 11.8519C18.0769 11.8519 18.1246 11.8355 18.1753 11.8266C18.2574 11.8161 18.3394 11.8147 18.4215 11.7878C18.4558 11.7759 18.4767 11.7505 18.508 11.7371C18.5408 11.7251 18.5766 11.7266 18.6065 11.7102C19.9908 11.0196 21.3856 10.8644 22.6446 11.2642C23.8992 11.6625 24.9225 12.5874 25.5968 13.9404C25.834 14.4148 26.3173 14.7161 26.8454 14.7206L34.1385 14.7922C31.1998 17.0179 29.1203 20.3818 28.6937 24.0932" fill="white"/>
</svg>

<svg width="48" height="33" viewBox="0 0 48 33" fill="none" xmlns="http://www.w3.org/2000/svg"><path fill-rule="evenodd" clip-rule="evenodd" d="M36.403 19.348l-1.483-1.483c1.858-1.785 4.335-2.994 7.149-2.994a1.412 1.412 0 10.015-2.824l-14.396-.141c-1.014-1.62-2.477-2.79-4.188-3.333-1.474-.467-3.082-.452-4.655.02l-.649-1.947 1.917-.96a1.412 1.412 0 10-1.263-2.525l-.531.267.297-1.784A1.402 1.402 0 0018.299.5a1.404 1.404 0 00-1.075-.5C11.048 0 6.022 5.024 6.022 11.201v2.258c0 .78.631 1.412 1.413 1.412 1.681 0 3.236.439 4.618 1.164l-1.745 2.616a7.388 7.388 0 00-2.873-.58A7.443 7.443 0 000 25.506a7.444 7.444 0 007.435 7.435 7.444 7.444 0 007.435-7.435c0-2.066-.85-3.937-2.217-5.285l1.715-2.568c2.292 2.09 3.7 5.063 3.7 7.853 0 .78.634 1.411 1.413 1.411h10.542a1.411 1.411 0 001.411-1.411c0-1.838.616-3.755 1.687-5.447l1.285 1.286a7.384 7.384 0 00-1.277 4.16 7.444 7.444 0 007.436 7.436A7.444 7.444 0 0048 25.506a7.444 7.444 0 00-7.435-7.435 7.389 7.389 0 00-4.162 1.277z" fill="#13C1AC" fill-opacity=".7"/><path fill-rule="evenodd" clip-rule="evenodd" d="M40.565 30.118a4.619 4.619 0 01-4.612-4.612c0-.756.201-1.46.525-2.09l3.088 3.088a1.403 1.403 0 001 .413 1.409 1.409 0 00.999-2.41l-3.09-3.087a4.52 4.52 0 012.089-.525 4.619 4.619 0 014.612 4.61 4.619 4.619 0 01-4.61 4.613zm-11.873-6.025h-7.88c-.7-6.096-5.868-11.262-11.966-11.964v-.928a8.391 8.391 0 016.683-8.204l-.452 2.7c-.003.027.002.05 0 .076-.006.042-.003.082-.004.125-.004.138.014.276.05.41.005.021 0 .044.008.07l1.506 4.516c.014.037.04.067.054.103.012.028.01.055.021.082.015.031.045.05.063.08.062.105.134.198.222.281.036.036.067.075.109.11.12.092.252.168.392.218.014.006.026.015.037.02.142.047.291.071.44.071.018 0 .035-.007.051-.007.051 0 .099-.017.15-.025.082-.01.164-.012.246-.04.034-.011.055-.037.086-.05.033-.012.069-.01.099-.027 1.384-.69 2.779-.846 4.038-.446 1.254.399 2.278 1.323 2.952 2.676.237.475.72.776 1.248.78l7.294.072c-2.94 2.226-5.019 5.59-5.445 9.301h-.002zm-16.646 1.413a4.619 4.619 0 01-4.611 4.612 4.617 4.617 0 01-4.611-4.612 4.617 4.617 0 014.61-4.611c.436 0 .85.079 1.25.194l-2.425 3.634a1.412 1.412 0 102.35 1.566l2.422-3.632a4.555 4.555 0 011.015 2.849zm28.52-7.435a7.389 7.389 0 00-4.163 1.277l-1.483-1.483c1.858-1.785 4.335-2.994 7.149-2.994a1.412 1.412 0 10.015-2.824l-14.396-.141c-1.014-1.62-2.477-2.79-4.188-3.333-1.474-.467-3.082-.452-4.655.02l-.649-1.947 1.917-.96a1.412 1.412 0 10-1.263-2.525l-.531.267.297-1.784A1.402 1.402 0 0018.299.5a1.404 1.404 0 00-1.075-.5C11.048 0 6.022 5.024 6.022 11.201v2.258c0 .78.631 1.412 1.413 1.412 1.681 0 3.236.439 4.618 1.164l-1.745 2.616a7.388 7.388 0 00-2.873-.58A7.443 7.443 0 000 25.506a7.444 7.444 0 007.435 7.435 7.444 7.444 0 007.435-7.435c0-2.066-.85-3.937-2.217-5.285l1.715-2.568c2.292 2.09 3.7 5.063 3.7 7.853 0 .78.634 1.411 1.413 1.411h10.542a1.411 1.411 0 001.411-1.411c0-1.838.616-3.755 1.687-5.447l1.285 1.286a7.384 7.384 0 00-1.277 4.16 7.444 7.444 0 007.436 7.436A7.444 7.444 0 0048 25.506a7.444 7.444 0 00-7.435-7.435" fill="#0F9989"/><path opacity=".5" fill-rule="evenodd" clip-rule="evenodd" d="M28.694 24.093h-7.881c-.701-6.096-5.869-11.262-11.967-11.964v-.928a8.391 8.391 0 016.683-8.204l-.452 2.7c-.003.027.002.05 0 .076-.006.042-.003.082-.005.125-.003.138.014.276.051.41.005.021 0 .044.008.07l1.506 4.516c.014.037.04.067.054.103.012.028.009.055.02.082.016.031.046.05.064.08.062.105.134.198.222.281.036.036.067.075.109.11.12.092.252.168.392.218.014.006.025.015.037.02.142.047.29.071.44.071.018 0 .035-.007.051-.007.05 0 .099-.017.15-.025.081-.01.163-.012.246-.04.034-.011.055-.037.086-.05.033-.012.069-.01.099-.027 1.384-.69 2.779-.846 4.038-.446 1.254.399 2.277 1.323 2.952 2.676.237.475.72.776 1.248.78l7.294.072c-2.94 2.226-5.019 5.59-5.445 9.301" fill="#fff"/></svg>
